X:61
T:BOBINBED- Bob in the Bed [Planxty Connor]
S:Johnson's Choice Coll'n of 200 CD's, III, 1744
Q:1/4=120
L:1/8
M:6/8
K:G
G3/2A/G FED|E2FG2A|B2Gc2A|B2Gc2A|B3/2c/d EFG|A3/2B/c FED|\
E3/2F/G AGF|G3G,3::d3/2e/d d2d|e2fg3|c3/2d/c cBA|c2de3|\
c3/2d/c EFG|A3/2B/c FED|E3/2F/G AGF|G3G,3:|]

